assets/oneGiftIcon.svg

<svg width="67" height="67" viewBox="0 0 67 67" fill="none" xmlns="http://www.w3.org/2000/svg">
<path d="M2.09375 17.7969L33.5 33.5L64.9062 17.7969V51.2969L33.5 66.9997L2.09375 51.2966V17.7969Z" fill="#DB5449"/>
<path d="M2.09375 20.9375V30.7257L33.3952 46.0624L64.906 30.6734V20.9375L33.5 36.3267L2.09375 20.9375Z" fill="#C54B42"/>
<path d="M33.5 66.9997V33.5L4.18752 18.8438H2.09375V51.2969L33.5 66.9997Z" fill="#D05045"/>
<path d="M2.09375 20.9375V30.7257L33.3952 46.0624L33.5 46.0101V36.2742V36.3266L2.09375 20.9375Z" fill="#BB483E"/>
<path d="M0 16.7006L33.5 0.00292969L67 16.7006V18.8991L33.5 35.5965L0 18.9513V16.7006Z" fill="#EB6258"/>
<path d="M52.7112 5.28676C51.6119 3.29773 49.2565 2.09375 46.4822 2.09375C40.1487 2.09375 35.6995 8.00863 33.501 11.7774C31.3025 8.00863 26.801 2.14611 20.5198 2.14611C16.4893 2.14611 13.6104 4.6063 13.6104 7.95627C13.6104 13.9234 20.1533 17.7969 33.2915 17.7969C46.4297 17.7969 53.3915 12.8243 53.3915 8.00863C53.3916 7.06648 53.1823 6.12432 52.7112 5.28676ZM21.8808 11.7252C20.4152 10.7306 19.8918 9.63139 19.8918 8.89856C19.8918 8.00877 20.7293 7.3283 21.9332 7.3283C24.7598 7.3283 27.0105 11.0447 28.2667 13.6096C24.9691 13.3478 23.0323 12.4579 21.8808 11.7252ZM45.1213 11.7252C43.9697 12.458 42.033 13.3478 38.7354 13.6095C39.9393 11.0447 42.1901 7.32817 45.0689 7.32817C46.2728 7.32817 47.1103 8.00864 47.1103 8.89843C47.1105 9.63139 46.587 10.7305 45.1213 11.7252Z" fill="#EFEFEF"/>
<path d="M0 16.75L33.5 33.1336L67 16.75V27.5851L33.3953 43.9687L0 27.5851V16.75Z" fill="#E2574C"/>
<path d="M46.0643 28.4222V27.2183L33.5018 20.4137L20.9394 27.2183V28.4222L12.5645 24.7582V23.0832L33.0831 12.248L33.5018 12.4574L33.9206 12.248L54.4392 23.0308V24.7058L46.0643 28.4222Z" fill="#EFEFEF"/>
<path d="M46.0596 27.2188V60.6664L54.4345 56.4789V23.0312L46.0596 27.2188Z" fill="#DCDCDC"/>
<path d="M12.5605 56.5311L20.9355 60.7187V27.2711L12.5605 23.0313C12.5605 23.0311 12.5605 56.5311 12.5605 56.5311Z" fill="#D1D1D1"/>
</svg>

<svg xmlns="http://www.w3.org/2000/svg" width="67" height="67" fill="none" xmlns:v="https://vecta.io/nano"><path d="M2.094 17.797L33.5 33.5l31.406-15.703v33.5L33.5 67 2.094 51.297v-33.5z" fill="#db5449"/><path d="M2.094 20.938v9.788l31.3 15.337 31.51-15.39v-9.736L33.5 36.327 2.094 20.938z" fill="#c54b42"/><path d="M33.5 67V33.5L4.188 18.844H2.094v32.453L33.5 67z" fill="#d05045"/><path d="M2.094 20.938v9.788l31.3 15.337L33.5 46v-9.684L2.094 20.938z" fill="#bb483e"/><path d="M0 16.7L33.5.003 67 16.7V18.9L33.5 35.597 0 18.95V16.7z" fill="#eb6258"/><path d="M52.71 5.287c-1.1-1.99-3.455-3.193-6.23-3.193-6.334 0-10.783 5.915-12.98 9.684-2.198-3.77-6.7-9.63-12.98-9.63-4.03 0-6.91 2.46-6.91 5.8 0 5.967 6.543 9.84 19.68 9.84s20.1-4.973 20.1-9.788c0-.942-.21-1.884-.68-2.722zm-30.83 6.438c-1.466-.995-1.99-2.094-1.99-2.827 0-.9.837-1.57 2.04-1.57 2.827 0 5.077 3.716 6.334 6.28-3.298-.262-5.234-1.152-6.386-1.884zm23.24 0c-1.152.733-3.088 1.623-6.386 1.884 1.204-2.565 3.455-6.28 6.334-6.28 1.204 0 2.04.68 2.04 1.57 0 .733-.523 1.832-1.99 2.827z" fill="#efefef"/><path d="M0 16.75l33.5 16.384L67 16.75v10.835L33.395 43.97 0 27.585V16.75z" fill="#e2574c"/><path d="M46.064 28.422v-1.204l-12.562-6.805-12.562 6.805v1.204l-8.375-3.664v-1.675l20.52-10.835.42.21.42-.21L54.44 23.03v1.675l-8.375 3.716z" fill="#efefef"/><path d="M46.06 27.22v33.448l8.375-4.187V23.03L46.06 27.22z" fill="#dcdcdc"/><path d="M12.56 56.53l8.375 4.188V27.27l-8.375-4.24c0 0 0 33.5 0 33.5z" fill="#d1d1d1"/></svg>
